svg/24/logo-twitter.svg

<svg width="24" height="24" viewBox="0 0 24 24" fill="currentColor" xmlns="http://www.w3.org/2000/svg"><path d="M19.8292 7.98316C19.8412 8.15675 19.8412 8.33034 19.8412 8.50553C19.8412 13.8436 15.7774 20 8.34671 20V19.9968C6.15164 20 4.00218 19.3712 2.1543 18.1857C2.47348 18.2241 2.79426 18.2433 3.11584 18.2441C4.93492 18.2457 6.70201 17.6353 8.13312 16.5114C6.40443 16.4786 4.88852 15.3515 4.35896 13.706C4.96452 13.8228 5.58848 13.7988 6.18284 13.6364C4.29816 13.2556 2.94225 11.5997 2.94225 9.67665C2.94225 9.65905 2.94225 9.64225 2.94225 9.62545C3.50381 9.93824 4.13257 10.1118 4.77573 10.131C3.00064 8.9447 2.45348 6.58325 3.52541 4.73696C5.57648 7.2608 8.60269 8.79511 11.8513 8.9575C11.5257 7.55439 11.9705 6.08408 13.02 5.09774C14.6471 3.56824 17.2061 3.64663 18.7357 5.27293C19.6404 5.09454 20.5075 4.76256 21.3011 4.29219C20.9995 5.22733 20.3683 6.02168 19.5252 6.52645C20.3259 6.43206 21.1083 6.21767 21.8451 5.89049C21.3027 6.70324 20.6195 7.41119 19.8292 7.98316Z"/></svg>

<svg xmlns="http://www.w3.org/2000/svg" width="24" height="24" fill="currentColor" viewBox="0 0 24 24">
  <path d="M19.83 7.983c.011.174.011.347.011.523C19.841 13.844 15.777 20 8.347 20v-.003a11.437 11.437 0 0 1-6.193-1.811 8.112 8.112 0 0 0 5.979-1.674 4.045 4.045 0 0 1-3.774-2.806c.606.117 1.23.093 1.824-.07a4.04 4.04 0 0 1-3.24-3.96v-.05c.56.312 1.19.486 1.833.505a4.045 4.045 0 0 1-1.25-5.394 11.466 11.466 0 0 0 8.325 4.22 4.042 4.042 0 0 1 6.885-3.684 8.107 8.107 0 0 0 2.565-.98 4.055 4.055 0 0 1-1.776 2.233 8.035 8.035 0 0 0 2.32-.636 8.209 8.209 0 0 1-2.016 2.093Z"/>
</svg>
